icons/src/scalable/default/devices/battery-symbolic.svg

<svg version="1.1" viewBox="0 0 16 16" xmlns="http://www.w3.org/2000/svg">
 <path d="m6 1v1h-2.998s-0.0019531 0.446-0.0019531 1v11c0 0.554 0.446 1 1 1h8c0.554 0 1-0.446 1-1v-11c0-0.554 0.001953-1 0.001953-1h-3.002v-1h-4z" fill="#bebebe"/>
</svg>

<svg xmlns="http://www.w3.org/2000/svg" viewBox="0 0 16 16">
  <defs id="defs3051">
    <style type="text/css" id="current-color-scheme">
      .ColorScheme-Text {
        color:#4d4d4d;
      }
      </style>
  </defs>
 <path 
     style="fill:#bebebe;fill-opacity:1;stroke:none" 
     class="ColorScheme-Text"
     d="M 6 1 L 6 2 L 3.0019531 2 C 3.0019531 2 3 2.446 3 3 L 3 14 C 3 14.554 3.446 15 4 15 L 12 15 C 12.554 15 13 14.554 13 14 L 13 3 C 13 2.446 13.001953 2 13.001953 2 L 10 2 L 10 1 L 6 1 z "
     />
</svg>
